X: 1
T: Gudmunds Kalles polska fr\aan R\"attvik efter Peters Erik Eriksson
O: R\"attvik
R: R\"attvikspolska
S: PDF image from MattFichtenberg 2019-9-22
M: 3/4
L: 1/8
K: D
z |\
A>A f2 e2 | d>B G>B G>B | e>f g2 f2 | e>c A2 (3Ace |\
a>a b2 a2 | g2 g/a/g/e/ f2 | f>e d>B G>B | B<A A3 :|
|: A/B/ |\
A>G F>E D>F | A<d f2 f2 | f>e c>e (3Ace | f>e d<B A2- |\
A>G F>E D>F | A<d f2 f2 | f>e c>e a>c | d2 d3 :|\
